X:0996
T:A Do.
M:C
L:1/8
Q:1/2=100
I :: ::
Z:Jack Campin * www.campin.me.uk * 2009
K:D
g|f2A>A e2d>e|f2A>A dBBg|f2A>A e2d>e|fedB AAA    :|
g|feaf  e2de |fdg2  dBBg|fdaf  e2de |fedB A/A/A A:|
<end>
<start>
